COPYsrc/media/oculusmobile.svg

<svg width="72" height="44" xmlns="http://www.w3.org/2000/svg">

 <g>
  <title>background</title>
  <rect fill="none" id="canvas_background" height="402" width="582" y="-1" x="-1"/>
 </g>
 <g>
  <title>Layer 1</title>
  <g id="surface1">
   <path id="svg_1" fill-rule="nonzero" fill="#000000" d="m63.929691,4.98438c-2.539063,-2.0586 -5.44141,-3.48438 -8.589851,-4.24219c-1.80859,-0.44141 -3.61718,-0.63281 -5.46093,-0.70313c-1.375,-0.05469 -2.75,-0.03515 -4.121101,-0.03515c-6.503899,0 -13.011719,0 -19.515619,0c-1.371099,0 -2.746099,-0.01954 -4.121099,0.03515c-1.859369,0.05078 -3.667959,0.26172 -5.476561,0.70313c-3.16797,0.77344 -6.054689,2.19922 -8.593749,4.25781c-5.07812,4.13672 -8.05078,10.38672 -8.05078,17.00391c0,6.61718 2.97266,12.863281 8.07031,17.019531c2.53907,2.05859 5.44141,3.484367 8.58985,4.257809c1.80859,0.44141 3.61718,0.632809 5.46093,0.703129c1.375,0.05468 2.75,0.035152 4.121099,0.035152c6.503901,0 13.011721,0 19.515619,0c1.371101,0 2.746101,0.019527 4.121101,-0.035152c1.859371,-0.050789 3.667969,-0.261719 5.476559,-0.703129c3.167973,-0.773441 6.054691,-2.199219 8.59375,-4.257809c5.09375,-4.136723 8.066414,-10.402351 8.066414,-17.019531c-0.015633,-6.61719 -2.988289,-12.86719 -8.085941,-17.01953zm-9.53125,22.933591c-0.953133,0.667969 -2.03516,1.105469 -3.164063,1.28516c-1.148438,0.191399 -2.277348,0.175779 -3.425789,0.175779c-7.878899,0 -15.738281,0 -23.61718,0c-1.148439,0 -2.277349,0 -3.425779,-0.175779c-1.148441,-0.19532 -2.210941,-0.617191 -3.16407,-1.28516c-1.933591,-1.33984 -3.07812,-3.55859 -3.07812,-5.93359c0,-2.375 1.16406,-4.574221 3.07812,-5.91407c0.953129,-0.667971 2.03516,-1.10937 3.16407,-1.285151c1.14843,-0.19141 2.27734,-0.17578 3.425779,-0.17578c7.878899,0 15.738281,0 23.61718,0c1.148441,0 2.277351,0 3.425789,0.17578c1.14843,0.19531 2.21093,0.61718 3.164063,1.285151c1.93359,1.339849 3.078117,3.554689 3.078117,5.933599c0.019531,2.375 -1.144527,4.574221 -3.078117,5.914061zm0,0"/>
  </g>
 </g>
</svg>

<?xml version="1.0" encoding="UTF-8"?>
<svg xmlns="http://www.w3.org/2000/svg" xmlns:xlink="http://www.w3.org/1999/xlink" width="72pt" height="44pt" viewBox="0 0 72 44" version="1.1">
<g id="surface1">
<path style=" stroke:none;fill-rule:nonzero;fill:rgb(0,0,0);fill-opacity:1;" d="M 63.929688 4.984375 C 61.390625 2.925781 58.488281 1.5 55.339844 0.742188 C 53.53125 0.300781 51.722656 0.109375 49.878906 0.0390625 C 48.503906 -0.015625 47.128906 0.00390625 45.757812 0.00390625 C 39.253906 0.00390625 32.746094 0.00390625 26.242188 0.00390625 C 24.871094 0.00390625 23.496094 -0.015625 22.121094 0.0390625 C 20.261719 0.0898438 18.453125 0.300781 16.644531 0.742188 C 13.476562 1.515625 10.589844 2.941406 8.050781 5 C 2.972656 9.136719 0 15.386719 0 22.003906 C 0 28.621094 2.972656 34.867188 8.070312 39.023438 C 10.609375 41.082031 13.511719 42.507812 16.660156 43.28125 C 18.46875 43.722656 20.277344 43.914062 22.121094 43.984375 C 23.496094 44.039062 24.871094 44.019531 26.242188 44.019531 C 32.746094 44.019531 39.253906 44.019531 45.757812 44.019531 C 47.128906 44.019531 48.503906 44.039062 49.878906 43.984375 C 51.738281 43.933594 53.546875 43.722656 55.355469 43.28125 C 58.523438 42.507812 61.410156 41.082031 63.949219 39.023438 C 69.042969 34.886719 72.015625 28.621094 72.015625 22.003906 C 72 15.386719 69.027344 9.136719 63.929688 4.984375 Z M 54.398438 27.917969 C 53.445312 28.585938 52.363281 29.023438 51.234375 29.203125 C 50.085938 29.394531 48.957031 29.378906 47.808594 29.378906 C 39.929688 29.378906 32.070312 29.378906 24.191406 29.378906 C 23.042969 29.378906 21.914062 29.378906 20.765625 29.203125 C 19.617188 29.007812 18.554688 28.585938 17.601562 27.917969 C 15.667969 26.578125 14.523438 24.359375 14.523438 21.984375 C 14.523438 19.609375 15.6875 17.410156 17.601562 16.070312 C 18.554688 15.402344 19.636719 14.960938 20.765625 14.785156 C 21.914062 14.59375 23.042969 14.609375 24.191406 14.609375 C 32.070312 14.609375 39.929688 14.609375 47.808594 14.609375 C 48.957031 14.609375 50.085938 14.609375 51.234375 14.785156 C 52.382812 14.980469 53.445312 15.402344 54.398438 16.070312 C 56.332031 17.410156 57.476562 19.625 57.476562 22.003906 C 57.496094 24.378906 56.332031 26.578125 54.398438 27.917969 Z M 54.398438 27.917969 "/>
</g>
</svg>
